X:147
T:Miss West’s Favorite. WM.147
M:C
L:1/8
Q:1/2=75
S:Wm.Mittell’s MS, New Romney,Kent,1799
R:.Country Dance
O:England
A:Kent
N:Missing from photocopy, reinserted from Dave Roberts book,probably with
N:wrong number
Z:vmp.Chris Partington
K:G
B3c dBed|cBAG GFED|GDAD BDcD|1BGcA GFED:||2BAGFG2G2:|!
|:BGAB dBAG|AFA^c d2d2|eAfA gAfA|ed^cde2A2|!
aAgA fAeA|fAaAe2A2|aAgA fAeA|fde^cd2z2:|
% Output from ABC2Win Version 2.1 k on 11/10/2005
